X:1
T:Sunday Morning (I'll be Married)
M:6/8
L:1/8
K:C
 A| ccc ABc| ddd G2 A| cAA AGE| AGG D2 C| D2 F EDC| DDD A2 A| A_BA EDC|\
 D3 D3|

